T: Aly's
M: 3/4
L: 1/8
K: Gmaj
B2- B>e- (3edB | A3 e d>B | G3 A G>F | E2 F2 G2 |D2 G2 B2 | c4 B>A | G D3 B>^A | A3 D G>A | B2- B>e- (3edB | A3 e d>B | G3 A G>F | E2 F2 G2 |D2 G2 B2 | c3 B A>G | E G3 F2 | G3 :|e2- e>f- f>g | d2- d>f- f>g | c3 B A>G | B6 |B3 c (3^dcB | e4 d>c | B<d G2 F>G | A3 D G>A |B2- B>e- (3edB | A3 e d>B | G3 A G>F | E2 F2 G2 |D2 G2 B2 | c3 B A>G | E G3 F2 | G3 :|
